icon/lg/engine-yard.svg

<?xml version="1.0" encoding="UTF-8"?>
<svg viewBox="0 0 512 82" version="1.1" xmlns="http://www.w3.org/2000/svg" xmlns:xlink="http://www.w3.org/1999/xlink" preserveAspectRatio="xMidYMid" height="1em" width="1em">
  <defs>
    <linearGradient x1="61.0500426%" y1="82.514%" x2="38.4498197%" y2="28.19%" id="linearGradient-1">
      <stop stop-color="#477CD8" offset="0%"/>
      <stop stop-color="#4573D2" offset="16%"/>
      <stop stop-color="#3F5BC2" offset="43%"/>
      <stop stop-color="#3633A7" offset="76%"/>
      <stop stop-color="#2F1391" offset="100%"/>
    </linearGradient>
    <linearGradient x1="62.8566029%" y1="19.708%" x2="52.4304188%" y2="78.902%" id="linearGradient-2">
      <stop stop-color="#2055DA" offset="0%"/>
      <stop stop-color="#2055DA" offset="11%"/>
      <stop stop-color="#00BFF6" offset="100%"/>
    </linearGradient>
  </defs>
  <g>
    <path d="M218.950709,19.1967646 C221.034956,19.972266 222.955619,21.1310662 224.613472,22.613298 C225.887929,23.7501708 226.899243,25.1511954 227.576984,26.7188007 C228.064823,27.8585538 228.382807,29.0637127 228.520778,30.295779 C228.581272,30.7582648 228.403697,31.2199598 228.048881,31.5227109 C227.712511,31.8327218 227.269897,32.0016585 226.812511,31.9946077 L221.678273,31.9946077 C221.279107,32.0121124 220.886012,31.8921852 220.564597,31.654842 C220.319347,31.4552512 220.117081,31.2080372 219.970007,30.9281208 C219.885065,30.7582379 219.658555,30.3901584 219.299913,29.8144442 C218.83618,29.1353957 218.261955,28.53884 217.601084,28.0495499 C216.672244,27.3463974 215.645122,26.783547 214.552631,26.379035 C213.035381,25.8588952 211.436937,25.6159318 209.833662,25.6617517 C207.084357,25.531406 204.387376,26.4450083 202.283312,28.2194328 C200.365498,29.9882117 199.265408,32.4719542 199.244296,35.0808133 C199.168793,36.6852626 199.121603,38.4029672 199.121603,40.2339271 C199.121603,42.0648869 199.168793,43.7825915 199.244296,45.3870409 C199.376427,48.8853697 200.389433,51.4241748 202.283312,53.0034564 C204.438501,54.6654735 207.115304,55.5053204 209.833662,55.3723786 C211.28373,55.390634 212.730136,55.222521 214.137361,54.872168 C215.367147,54.5700468 216.518789,54.0103098 217.516143,53.2299669 C218.496201,52.4282489 219.258898,51.3929295 219.734058,50.2192648 C220.294659,48.7601025 220.560891,47.204407 220.517407,45.6418652 L220.517407,45.1322166 L212.806612,45.1322166 C211.871575,45.112209 211.118353,44.3589867 211.098345,43.4239499 L211.098345,38.9503676 C211.095751,38.4976589 211.280158,38.0639601 211.607994,37.7517495 C211.918482,37.4225258 212.354204,37.2406893 212.806612,37.2515389 L227.341036,37.2515389 C227.793444,37.2406893 228.229166,37.4225258 228.539654,37.7517495 C228.86749,38.0639601 229.051897,38.4976589 229.049302,38.9503676 L229.049302,45.9061274 C229.068993,48.2900413 228.66309,50.6583382 227.850684,52.899639 C227.074642,54.9798351 225.842754,56.8599147 224.245392,58.4019565 C222.518604,60.014943 220.469609,61.2436967 218.233426,62.0072486 C212.77996,63.7155171 206.934554,63.7155171 201.481087,62.0072486 C199.296745,61.2663584 197.299967,60.0586295 195.629566,58.4680221 C194.04959,56.9282798 192.828308,55.0593005 192.052588,52.9940184 C191.211219,50.7586515 190.75179,48.3976993 190.693525,46.0099448 C190.693525,45.2077201 190.618021,44.320554 190.599145,43.3578843 C190.58027,42.3952147 190.599145,41.3947934 190.599145,40.3849341 L190.599145,37.4119838 C190.599145,36.4493142 190.674649,35.5810239 190.712401,34.7787993 C190.765756,32.4092984 191.235366,30.067638 192.099778,27.8607912 C192.913053,25.8194111 194.166622,23.9825621 195.771135,22.4811669 C197.481435,20.9255624 199.49666,19.7427827 201.688722,19.0080059 C207.326006,17.2997988 213.352127,17.365694 218.950709,19.1967646 Z M155.367325,18.9325024 C155.744843,19.3100199 156.018543,19.6120339 156.188426,19.8196685 L173.92231,46.1987035 L173.92231,20.1499963 C173.927468,19.2086915 174.689272,18.4468876 175.630577,18.4417297 L180.755377,18.4417297 C181.690877,18.4570132 182.444105,19.2144254 182.454206,20.1499963 L182.454206,60.9973893 C182.444105,61.9329602 181.690877,62.6903724 180.755377,62.705656 L176.291232,62.6679042 C175.689607,62.7102778 175.096669,62.5058165 174.649031,62.101628 C174.271514,61.7146726 173.997814,61.4220965 173.827931,61.2144619 L156.12236,34.8731786 L156.12236,60.9218858 C156.117202,61.8631907 155.355398,62.6249945 154.414094,62.6301525 L149.298731,62.6301525 C148.357427,62.6249945 147.595623,61.8631907 147.590465,60.9218858 L147.590465,20.0744928 C147.595623,19.133188 148.357427,18.3713841 149.298731,18.3662262 L153.725124,18.3662262 C154.326749,18.3238526 154.919687,18.5283139 155.367325,18.9325024 Z M263.214636,18.9325024 C263.592153,19.3100199 263.865853,19.6120339 264.035736,19.8196685 L281.741307,46.2458932 L281.741307,20.1499963 C281.746465,19.2086915 282.508269,18.4468876 283.449573,18.4417297 L288.564936,18.4417297 C289.50624,18.4468876 290.268044,19.2086915 290.273202,20.1499963 L290.273202,60.9973893 C290.268044,61.9386942 289.50624,62.700498 288.564936,62.705656 L284.166857,62.6679042 C283.565232,62.7102778 282.972294,62.5058165 282.524656,62.101628 C282.147138,61.7146726 281.873438,61.4220965 281.703555,61.2144619 L263.997985,34.8731786 L263.997985,60.9218858 C263.9955,61.3791006 263.810833,61.8164578 263.484882,62.1370941 C263.158931,62.4577304 262.718598,62.6351836 262.261404,62.6301525 L257.146042,62.6301525 C256.204737,62.6249945 255.442933,61.8631907 255.437775,60.9218858 L255.437775,20.0744928 C255.442933,19.133188 256.204737,18.3713841 257.146042,18.3662262 L261.572435,18.3662262 C262.17406,18.3238526 262.766998,18.5283139 263.214636,18.9325024 Z M411.078801,18.9419403 C411.484171,19.4119143 411.786406,19.9617246 411.965967,20.5558276 L427.425308,60.5160545 C427.559355,61.0291537 427.448881,61.5754017 427.125986,61.9960887 C426.80309,62.4167758 426.30398,62.664728 425.773669,62.6679042 L421.224583,62.6679042 C420.584614,62.7370976 419.944042,62.5428816 419.450251,62.1299418 C419.148729,61.8336894 418.91385,61.4765437 418.761282,61.0823308 L416.099783,54.0699433 L396.091356,54.0699433 L393.37323,61.0823308 C393.211145,61.4715668 392.977443,61.8269225 392.684261,62.1299418 C392.19047,62.5428816 391.549898,62.7370976 390.909929,62.6679042 L386.351405,62.6679042 C385.898696,62.670499 385.464997,62.4860916 385.152787,62.1582556 C384.823563,61.8477676 384.641726,61.412046 384.652576,60.9596376 C384.652117,60.809954 384.671289,60.6608571 384.709204,60.5160545 L400.206297,20.5558276 C400.385858,19.9617246 400.688093,19.4119143 401.093463,18.9419403 C401.496687,18.5548577 402.046396,18.3590238 402.603533,18.4039779 L409.559293,18.4039779 C410.119295,18.3587178 410.672024,18.5544046 411.078801,18.9419403 Z M434.975658,18.3756641 L451.293852,18.4039779 C456.566513,18.4039779 460.571344,19.6277638 463.308346,22.0753355 C466.045348,24.5229073 467.416995,27.9142728 467.423287,32.249432 C467.508773,35.0253704 466.769826,37.7643992 465.299751,40.1206718 C463.802239,42.3662827 461.616411,44.065267 459.070712,44.9623337 L467.800804,60.5821201 C467.914859,60.7979961 467.979344,61.0365877 467.989563,61.2805274 C467.979402,62.042506 467.364165,62.6577432 466.602186,62.6679042 L461.222562,62.6679042 C460.537034,62.7350809 459.854148,62.5165574 459.334975,62.0638762 C458.989622,61.7457998 458.699402,61.3726596 458.476122,60.9596376 L450.217927,46.1987035 L441.808725,46.1987035 L441.808725,60.9313238 C441.803567,61.8726286 441.041763,62.6344325 440.100458,62.6395904 L434.975658,62.6395904 C434.034353,62.6344325 433.272549,61.8726286 433.267392,60.9313238 L433.267392,20.0839308 C433.272549,19.1426259 434.034353,18.380822 434.975658,18.3756641 Z M137.567375,18.4039509 C138.020084,18.4013832 138.453783,18.5857905 138.765993,18.9136265 C139.095217,19.2241146 139.277054,19.6598362 139.266204,20.1122446 L139.266204,24.6047028 C139.256103,25.5402737 138.502876,26.2976858 137.567375,26.3129694 L117.105927,26.3129694 L117.105927,36.3643727 L136.170561,36.3643727 C137.111865,36.3695307 137.873669,37.1313346 137.878827,38.0726394 L137.878827,42.5556597 C137.886398,43.0137442 137.711654,43.4560682 137.393049,43.7852937 C137.074444,44.1145191 136.638085,44.303668 136.179999,44.311116 L117.105927,44.311116 L117.105927,54.8061024 L138.058148,54.7589127 C138.993185,54.7789203 139.746407,55.5321425 139.766415,56.4671794 L139.766415,60.9596376 C139.746407,61.8946744 138.993185,62.6478966 138.058148,62.6679042 L110.310612,62.6679042 C109.369307,62.6627463 108.607503,61.9009424 108.602345,60.9596376 L108.602345,20.1122446 C108.607503,19.1709397 109.369307,18.4091359 110.310612,18.4039509 L137.567375,18.4039509 Z M243.895178,18.4039779 C244.830215,18.4239855 245.583437,19.1772077 245.603445,20.1122446 L245.603445,60.9596376 C245.583437,61.8946744 244.830215,62.6478966 243.895178,62.6679042 L238.770378,62.6679042 C237.835341,62.6478966 237.082119,61.8946744 237.062111,60.9596376 L237.062111,20.1122446 C237.082119,19.1772077 237.835341,18.4239855 238.770378,18.4039779 L243.895178,18.4039779 Z M329.157504,18.4039779 C330.092541,18.4239855 330.845763,19.1772077 330.865771,20.1122446 L330.865771,24.6047028 C330.845763,25.5397396 330.092541,26.2929618 329.157504,26.3129694 L308.705494,26.3129694 L308.705494,36.3643727 L327.76069,36.3643727 C328.701994,36.3695307 329.463798,37.1313346 329.468956,38.0726394 L329.468956,42.5556597 C329.476488,43.0120918 329.291492,43.4506015 328.959308,43.7637157 C328.643596,44.0853037 328.211344,44.265692 327.76069,44.2639263 L308.705494,44.2639263 L308.705494,54.7589127 L329.648277,54.7589127 C330.583314,54.7789203 331.336536,55.5321425 331.356544,56.4671794 L331.356544,60.9596376 C331.336536,61.8946744 330.583314,62.6478966 329.648277,62.6679042 L301.900741,62.6679042 C300.965704,62.6478966 300.212482,61.8946744 300.192474,60.9596376 L300.192474,20.1122446 C300.212482,19.1772077 300.965704,18.4239855 301.900741,18.4039779 L329.157504,18.4039779 Z M385.407611,18.4039779 C386.342648,18.4239855 387.09587,19.1772077 387.115956,20.1122446 C387.118018,20.3078214 387.076083,20.501369 386.993185,20.6785208 L372.00574,47.0481179 L372.00574,60.9596376 C371.985732,61.8946744 371.23251,62.6478966 370.297473,62.6679042 L365.238739,62.6679042 C364.299551,62.6576948 363.540682,61.8988258 363.530472,60.9596376 L363.530472,47.0481179 L348.524152,20.7162726 C348.441254,20.5391208 348.399318,20.3455731 348.401459,20.1499963 C348.390609,19.6975879 348.572446,19.2618663 348.901669,18.9513783 C349.214783,18.6191937 349.653293,18.4341975 350.109725,18.4417297 L354.828694,18.4417297 C355.516927,18.3932451 356.196142,18.6207823 356.716281,19.0740715 C357.018626,19.3445558 357.273798,19.6635198 357.471316,20.0178652 L367.720916,37.9499462 L377.961078,20.0178652 C378.162027,19.6632037 378.420349,19.3442872 378.725551,19.0740715 C379.241297,18.6131658 379.923824,18.3845193 380.613139,18.4417297 L385.407611,18.4039779 Z M501.097848,19.6403477 C505.410571,21.0619049 508.83552,24.3790637 510.394216,28.64414 C511.24065,30.9485036 511.74002,33.3658382 511.875972,35.8169724 C512.045863,38.9354715 512.045863,42.0609071 511.875972,45.1794063 C511.743741,47.6432938 511.244314,50.0736227 510.394216,52.3899904 C509.619657,54.4484796 508.423838,56.3225722 506.883303,57.8923079 C505.276224,59.461756 503.342687,60.6573266 501.220541,61.3937827 C498.666985,62.2650896 495.980822,62.683505 493.283235,62.6301525 L477.351997,62.6301525 C476.412809,62.619943 475.65394,61.861074 475.64373,60.9218858 L475.64373,20.1122446 C475.648888,19.1709397 476.410692,18.4091359 477.351997,18.4039779 L492.971783,18.4039779 C495.731096,18.3506196 498.479266,18.7687499 501.097848,19.6403477 Z M492.547076,26.2563418 L484.052933,26.2563418 L484.052933,54.6928471 L492.84909,54.6928471 C494.375634,54.7316955 495.896015,54.4852337 497.33211,53.966126 C498.51912,53.5418493 499.598452,52.8620311 500.49382,51.9747212 C501.335631,51.1139786 501.979769,50.0801368 502.381407,48.9451433 C502.833503,47.733632 503.100756,46.4609978 503.174194,45.1699683 C503.378363,42.0566223 503.422465,38.9348434 503.306325,35.8169724 C503.237406,34.5253474 502.970011,33.252036 502.513538,32.0417974 C502.080838,30.9016748 501.411826,29.8659938 500.550447,29.0027816 C499.616548,28.0951988 498.4956,27.4026591 497.266045,26.973625 C495.747688,26.4580147 494.150064,26.2151758 492.547076,26.2563418 Z M406.09557,28.1439293 L399.111496,46.1987035 L413.041892,46.1987035 L406.09557,28.1439293 Z M451.020152,26.379035 L441.846477,26.379035 L441.808725,38.3180258 L451.020152,38.3180258 C453.017186,38.4119949 455.003508,37.9756553 456.777294,37.0533422 C458.202422,36.2133657 458.910267,34.6089164 458.919797,32.249432 C458.929143,29.8899477 458.21186,28.3138122 456.777294,27.5304634 C454.986201,26.6668534 453.005626,26.2707384 451.020152,26.379035 Z" fill="#3B62DE"/>
    <g>
      <path d="M23.0474431,40.1301098 C23.0474431,30.7008259 30.691388,23.056881 40.1206718,23.056881 C49.5499557,23.056881 57.1939006,30.7008259 57.1939006,40.1301098 C57.1939006,49.5593936 49.5499557,57.2033385 40.1206718,57.2033385 L40.1206718,57.2033385 C30.691388,57.2033385 23.0474431,49.5593936 23.0474431,40.1301098 L23.0474431,40.1301098 M0,40.1301098 C0,62.2829325 17.9584111,80.2413436 40.1112339,80.2413436 C62.2640567,80.2413436 80.2224678,62.2829325 80.2224678,40.1301098 C80.2224678,17.977287 62.2640567,0.0188758748 40.1112339,0.0188758748 L40.1112339,0.0188758748 C17.9713434,0.0500661871 0.0311903124,17.9902193 0,40.1301098" fill="url(#linearGradient-1)"/>
      <path d="M48.3222394,12.3353842 L40.092358,23.066319 C49.3575218,23.2842625 56.7548699,30.857664 56.7548699,40.1253908 C56.7548699,49.3931176 49.3575218,56.9665191 40.092358,57.1844626 L29.7861304,68.8969429 L40.092358,80.2224678 C54.4359484,80.5534989 67.8645713,73.1999426 75.3113526,60.9364351 C82.758134,48.6729277 83.0894775,33.366298 76.180361,20.7920276 C69.2712444,8.21775711 56.1734175,0.289981241 41.8289385,0 C41.2532243,0 40.6680722,0 40.092358,0 L48.3222394,12.3353842 Z" fill="url(#linearGradient-2)"/>
    </g>
  </g>
</svg>

<svg width="512" height="82" xmlns="http://www.w3.org/2000/svg" preserveAspectRatio="xMidYMid"><defs><linearGradient x1="61.05%" y1="82.514%" x2="38.45%" y2="28.19%" id="a"><stop stop-color="#477CD8" offset="0%"/><stop stop-color="#4573D2" offset="16%"/><stop stop-color="#3F5BC2" offset="43%"/><stop stop-color="#3633A7" offset="76%"/><stop stop-color="#2F1391" offset="100%"/></linearGradient><linearGradient x1="62.857%" y1="19.708%" x2="52.43%" y2="78.902%" id="b"><stop stop-color="#2055DA" offset="0%"/><stop stop-color="#2055DA" offset="11%"/><stop stop-color="#00BFF6" offset="100%"/></linearGradient></defs><path d="M218.95 19.197a17.819 17.819 0 0 1 5.663 3.416 11.75 11.75 0 0 1 2.964 4.106c.488 1.14.806 2.345.944 3.577.06.462-.117.924-.472 1.227-.336.31-.78.479-1.236.472h-5.135c-.399.017-.792-.103-1.113-.34a2.34 2.34 0 0 1-.595-.727c-.085-.17-.311-.538-.67-1.114a7.362 7.362 0 0 0-1.699-1.764 11.892 11.892 0 0 0-3.048-1.671 13.374 13.374 0 0 0-4.72-.717 10.91 10.91 0 0 0-7.55 2.557 9.438 9.438 0 0 0-3.039 6.862 109.41 109.41 0 0 0-.122 5.153c0 1.83.047 3.549.122 5.153.132 3.498 1.145 6.037 3.04 7.616a11.448 11.448 0 0 0 7.55 2.37c1.45.018 2.896-.15 4.303-.5a8.947 8.947 0 0 0 3.38-1.643 7.55 7.55 0 0 0 2.217-3.01c.56-1.46.827-3.016.783-4.578v-.51h-7.71a1.746 1.746 0 0 1-1.709-1.708V38.95a1.642 1.642 0 0 1 .51-1.198c.31-.33.746-.511 1.199-.5h14.534c.452-.011.888.17 1.199.5.327.312.512.746.51 1.198v6.956a20.037 20.037 0 0 1-1.2 6.994 14.874 14.874 0 0 1-3.605 5.502 16.724 16.724 0 0 1-6.012 3.605 28.021 28.021 0 0 1-16.752 0 15.884 15.884 0 0 1-5.851-3.539 15.016 15.016 0 0 1-3.577-5.474 21.301 21.301 0 0 1-1.36-6.984c0-.802-.075-1.69-.094-2.652-.019-.963 0-1.963 0-2.973v-2.973c0-.963.076-1.831.113-2.633.054-2.37.523-4.711 1.388-6.918a14.94 14.94 0 0 1 3.671-5.38 16.667 16.667 0 0 1 5.918-3.473 28.73 28.73 0 0 1 17.262.189Zm-63.583-.264c.378.377.652.679.821.887l17.734 26.379V20.15a1.718 1.718 0 0 1 1.709-1.708h5.124a1.727 1.727 0 0 1 1.7 1.708v40.847a1.727 1.727 0 0 1-1.7 1.709l-4.464-.038a2.218 2.218 0 0 1-1.642-.566c-.377-.387-.651-.68-.821-.888l-17.706-26.34v26.048a1.718 1.718 0 0 1-1.708 1.708H149.3a1.718 1.718 0 0 1-1.709-1.708V20.074a1.718 1.718 0 0 1 1.709-1.708h4.426a2.218 2.218 0 0 1 1.642.567Zm107.848 0c.377.377.65.679.82.887l17.706 26.426V20.15a1.718 1.718 0 0 1 1.709-1.708h5.115a1.718 1.718 0 0 1 1.708 1.708v40.847a1.718 1.718 0 0 1-1.708 1.709l-4.398-.038a2.218 2.218 0 0 1-1.642-.566c-.378-.387-.652-.68-.821-.888l-17.706-26.34v26.048a1.718 1.718 0 0 1-1.737 1.708h-5.115a1.718 1.718 0 0 1-1.708-1.708V20.074a1.718 1.718 0 0 1 1.708-1.708h4.426a2.218 2.218 0 0 1 1.643.567Zm147.864.009c.405.47.707 1.02.887 1.614l15.46 39.96a1.718 1.718 0 0 1-1.652 2.152h-4.55c-.64.07-1.28-.125-1.774-.538a2.973 2.973 0 0 1-.689-1.048L416.1 54.07H396.09l-2.718 7.012a3.37 3.37 0 0 1-.689 1.048 2.369 2.369 0 0 1-1.774.538h-4.559a1.642 1.642 0 0 1-1.198-.51 1.595 1.595 0 0 1-.5-1.198c0-.15.018-.3.056-.444l15.497-39.96c.18-.594.482-1.144.887-1.614a1.954 1.954 0 0 1 1.51-.538h6.956c.56-.045 1.113.15 1.52.538Zm23.897-.566 16.318.028c5.273 0 9.277 1.224 12.014 3.671 2.737 2.448 4.109 5.84 4.115 10.174a14.053 14.053 0 0 1-2.123 7.872 12.468 12.468 0 0 1-6.23 4.841l8.73 15.62c.115.216.18.455.19.699a1.406 1.406 0 0 1-1.388 1.387h-5.38a2.501 2.501 0 0 1-1.887-.604 4.247 4.247 0 0 1-.859-1.104l-8.258-14.761h-8.41V60.93a1.718 1.718 0 0 1-1.708 1.709h-5.124a1.718 1.718 0 0 1-1.709-1.709V20.084a1.718 1.718 0 0 1 1.709-1.708Zm-297.409.028c.453-.003.887.182 1.199.51.33.31.511.746.5 1.198v4.493a1.727 1.727 0 0 1-1.699 1.708h-20.461v10.051h19.065a1.718 1.718 0 0 1 1.708 1.709v4.483a1.727 1.727 0 0 1-1.699 1.755h-19.074v10.495l20.952-.047c.935.02 1.688.773 1.708 1.708v4.493a1.746 1.746 0 0 1-1.708 1.708h-27.747a1.718 1.718 0 0 1-1.709-1.708V20.112a1.718 1.718 0 0 1 1.709-1.708h27.256Zm106.328 0c.935.02 1.688.773 1.708 1.708V60.96a1.746 1.746 0 0 1-1.708 1.708h-5.125a1.746 1.746 0 0 1-1.708-1.708V20.112a1.746 1.746 0 0 1 1.708-1.708h5.125Zm85.263 0c.935.02 1.688.773 1.708 1.708v4.493a1.746 1.746 0 0 1-1.708 1.708h-20.453v10.051h19.056a1.718 1.718 0 0 1 1.708 1.709v4.483c.007.456-.178.895-.51 1.208a1.67 1.67 0 0 1-1.198.5h-19.056v10.495h20.943c.935.02 1.689.773 1.709 1.708v4.493a1.746 1.746 0 0 1-1.709 1.708h-27.747a1.746 1.746 0 0 1-1.709-1.708V20.112a1.746 1.746 0 0 1 1.709-1.708h27.257Zm56.25 0c.935.02 1.688.773 1.708 1.708.002.196-.04.39-.123.567l-14.987 26.37v13.91a1.746 1.746 0 0 1-1.709 1.709h-5.058a1.727 1.727 0 0 1-1.709-1.708V47.048l-15.006-26.332a1.302 1.302 0 0 1-.123-.566c-.01-.452.171-.888.5-1.199a1.623 1.623 0 0 1 1.209-.51h4.719a2.595 2.595 0 0 1 1.887.633c.303.27.558.59.755.944l10.25 17.932 10.24-17.932c.201-.355.46-.674.765-.944a2.52 2.52 0 0 1 1.887-.632l4.795-.038Zm115.69 1.236a14.846 14.846 0 0 1 9.296 9.004 24.784 24.784 0 0 1 1.482 7.173c.17 3.118.17 6.244 0 9.362a24.784 24.784 0 0 1-1.482 7.211 15.8 15.8 0 0 1-3.51 5.502 15.27 15.27 0 0 1-5.663 3.502 23.16 23.16 0 0 1-7.938 1.236h-15.931a1.727 1.727 0 0 1-1.708-1.708v-40.81a1.718 1.718 0 0 1 1.708-1.708h15.62c2.76-.053 5.507.365 8.126 1.236Zm-8.55 6.616h-8.495v28.437h8.796a12.27 12.27 0 0 0 4.483-.727 8.607 8.607 0 0 0 3.162-1.991 8.287 8.287 0 0 0 1.887-3.03c.453-1.211.72-2.484.793-3.775.204-3.113.248-6.235.132-9.353a12.6 12.6 0 0 0-.792-3.775 8.645 8.645 0 0 0-1.964-3.04 8.938 8.938 0 0 0-3.284-2.028 13.59 13.59 0 0 0-4.719-.718Zm-86.452 1.888-6.985 18.055h13.93l-6.945-18.055Zm44.924-1.765h-9.174l-.037 11.939h9.211a11.326 11.326 0 0 0 5.757-1.265c1.425-.84 2.133-2.444 2.143-4.804.01-2.36-.708-3.935-2.143-4.719a11.779 11.779 0 0 0-5.757-1.151Z" fill="#3B62DE"/><path d="M23.047 40.13c0-9.43 7.644-17.073 17.074-17.073 9.429 0 17.073 7.644 17.073 17.073 0 9.43-7.644 17.073-17.073 17.073-9.43 0-17.074-7.644-17.074-17.073M0 40.13c0 22.153 17.958 40.111 40.111 40.111s40.111-17.958 40.111-40.11c0-22.154-17.958-40.112-40.11-40.112C17.971.05.031 17.99 0 40.13" fill="url(#a)"/><path d="m48.322 12.335-8.23 10.731c9.266.218 16.663 7.792 16.663 17.06 0 9.267-7.397 16.84-16.663 17.058L29.786 68.897l10.306 11.325A40.12 40.12 0 1 0 41.83 0h-1.737l8.23 12.335Z" fill="url(#b)"/></svg>
